X:1
T:Beautiful Christmas Tide
T:Beautiful Christmas Tide
T:Joseph Lincoln Hall
T:Alice Jean Cleator, 1900
T:Public Domain Courtesy of the Cyber Hymnal™
T:Public Domain Courtesy of the Cyber Hymnal™
C:Joseph Lincoln Hall
Z:Public Domain
Z:Courtesy of the Cyber Hymnal™
%%score ( 1 2 ) ( 3 4 )
L:1/8
Q:1/4=105
M:3/4
K:Bb
V:1 treble 
V:2 treble 
V:3 bass 
V:4 bass 
V:1
 [DF]2 [^C=E]2 [DF]2 | [EG]>[DF] [Fd]4 | [Ec]2 [EG]2 [EB]2 | [DF]6 | [DF]2 [^C=E]2 [DF]2 | %5
w: 1.~Beau- ti- ful|Christ- mas time|Once more we|greet,|Tell- ing in|
w: 2.~Beau- ti- ful|Christ- mas day|Of long a-|go,|Ev- er up-|
w: 3.~Beau- ti- ful|Christ- mas tide|Wel- come to-|day,|Speak to our|
 [EG]>[DF] [Fd]4 | [=Ec]2 [EG]2 [Ed]2 | [Ec]6 | [Fd]2 [Fd]2 [Fd]2 | [Ec]>[EB] [EG]4 | %10
w: song and chime,|A sto- ry|sweet—|Sto- ry of|One who came|
w: on our way|Thy light shall|glow;|Ev- er thy|won- der- ful|
w: hearts and guide|Each on his|way;|Tell of the|One who came|
 [EA]2 [CE]2 [EG]2 | [DF]6 | [Fd]2 [Fe]2 [Fd]2 | [=Ec]>[EB] [EG]4 | [EA]2 [Ed]2 [Ec]2 | [DB]6 || %16
w: From courts a-|bove,|That all who|hear His name|Might know His|love.|
w: Glad- ness shall|bring|News to a|list- ening earth|Of Christ the|King.|
w: From courts a-|bove,|That all who|hear His name|Might know His|love.|
"^Refrain"[Q:1/4=88] F"^Accelerando" | z ([DF]!<(! [DF]) (z [D^F][DFA]) | z (z [EG]) x5!<)! | %19
w: |||
w: The|Christ- * * *||
w: |||
 (z [EG]) (z [_EB]) x2 | (z z [EA]) x5 | (z [D^F]) [DFA] (z [DF])[DFc] | %22
w: |||
w: ||* mas * light|
w: |||
 z [EG] [EG] (z [DG])[DGB] | z [=EA] [EB] (z [Ed]) x | (z f e z) eF | z [DF] [DF] (z [D^F])[DFA] | %26
w: ||||
w: * * * shines|* o’er *|* * us, It|* lights * the|
w: ||||
 z z [EG] x5 | B2 A c2 B | (z [^FA] [GB] d2) [GB][FAd] | [G=Bd][GB^c] [GBd][GBf] [GBe][GBd] | %30
w: ||||
w: |way be- fore us;|* * * Sweet bells|* in sil- ver chor- us|
w: ||||
!>(! [EGc][EG=B] [EGc][EGce] [FGBd][EGc] | [DFB][CEA] [DFB] d2 [EA][EAc]!>)! | %32
w: ||
w: Pro- claim the glad news of|Heav’n! The an- gels bright are|
w: ||
 B3- [B,E] [B,E] [B,DB]2 |] %33
w: |
w: * * sing- ing|
w: |
V:2
 x6 | x6 | x6 | x6 | x6 | x6 | x6 | x6 | x6 | x6 | x6 | x6 | x6 | x6 | x6 | x6 || x | G2 B2 x2 | %18
 A3 (E E) (G2 E) | (c2 =E) (c2 =E) | (B3 E E) (A2 E) | d2 d2 x2 | c3 B2 x | (B2 G2 =E) x | %24
 [Fc]3- [Fc]2 x | B2 B2 x2 | (A3 E E) (G2 E) | B2 A c2 B | d3- [Ac] x3 | x6 | x6 | x3 [FB] x3 | %32
 [DF] x6 |] %33
V:3
 [B,,B,]2 [B,,B,]2 [B,,B,]2 | [B,,B,]>[B,,B,] [B,,B,]4 | [E,G,]2 [E,B,]2 [E,G,]2 | [B,,B,]6 | %4
 [B,,B,]2 [B,,B,]2 [B,,B,]2 | [B,,B,]>[B,,B,] [B,,B,]4 | [C,B,]2 [C,G,]2 [C,B,]2 | [F,A,]6 | %8
 [B,,B,]2 [B,,B,]2 [B,,B,]2 | [E,G,]>[E,G,] [E,B,]4 | F,2 [F,A,]2 [F,A,]2 | [B,,B,]6 | %12
 [G,=B,]2 [G,B,]2 [G,B,]2 | [C,C]>[C,C] [C,C]4 | [F,C]2 [F,G,]2 [F,A,]2 | [B,,B,]6 || z | %17
 z ([F,B,] [F,B,]) (z [A,C])[A,C] | z (B, B,) (z B,)B, x2 | z [G,C] [G,C] (z [G,C])[G,C] | %20
 z C C (z C)C x2 | z [A,C] [A,C] (z [A,C])[A,C] | z B, B, (z B,)B, | %23
 z [G,B,C] [G,B,C] (z [G,B,C])[G,B,C] | z [A,CE] [A,CE] z [A,CE][A,CE] | %25
 (z [F,B,]) [F,B,] (z [A,C])[A,C] | z B, B, (z B,)B, x2 | [B,,B,]2 [A,,A,] [C,C]2 [B,,C] | %28
 [D,D]6 x | z [G,=B,DF] [G,B,DF][G,B,DF] [G,B,DF][G,B,DF] | %30
 [C,G,C][C,G,C] [C,G,C][C,,C,] [D,,D,][E,,E,] | %31
 [F,,F,][_G,,_G,] [F,,F,]([F,,F,] [=G,,=G,])[A,,A,] x | B,_G, G, [B,,F,]2 x2 |] %33
V:4
 x6 | x6 | x6 | x6 | x6 | x6 | x6 | x6 | x6 | x6 | F,2 x4 | x6 | x6 | x6 | x6 | x6 || x | %17
 B,,3 D,3 | E,3 E,3 x2 | C,3 =E,3 | F,3 F,3 x2 | D,3 ^F,3 | G,2 G,2 x2 | C,3 C,3 | (D,3 F,3) | %25
 B,,3 D,3 | E,3 E,3 x2 | x6 | x7 | G,,6 | x6 | x7 | B,,3- x4 |] %33

